X:1
T:Title
L:1/8
Q:1/4=110
M:4/4
K:Bb
V:1 treble nm="Church Organ, Staff"
V:1
 F2 B2- B/ z/ B B2 | G2 F2- F/ z/ G F2 | B2 GA B2 c2 | d2 c6 | A2 B2- B/ z/ B B2 | %5
w: By~Rev.~R.~F.~Smith * * * *|||||
 G2 F2- F/ z/ G F2 | D2 E2- E/ z/ F G2 | A2 B2- B/ z/ c d2 | f2 ed cB A2 | Bc B6 |] %10
w: |||||

